X: 27488
T: Molly St George
R: waltz
M: 3/4
K: Gmajor
de/f/|~g2 gf ed|d2 ~ed cB|B2 ~cB AG|E4 AB/d/|
e2f2ed/B/|A2B2dD|EG ~A3G|G4:|
DE/F/|G2GA B~A|~B2B2GA/B/|c2{B}cd ef|g2G2de/g/|
a2b2~ag/e/|d2~e2ed/B/|A3B d/B/A/G/|A4AB|
c2 {B}cd ef|g2~ag fe|de g B AG|E4ef|
gf ed cB|cB AG ED|EG~A3G|G4||

